; generated by Slic3r 1.3.0 on 2021-07-04 at 17:38:44

; external perimeters extrusion width = 0.43mm (1.54mm^3/s)
; perimeters extrusion width = 0.55mm (4.02mm^3/s)
; infill extrusion width = 0.49mm (3.56mm^3/s)
; solid infill extrusion width = 0.55mm (2.01mm^3/s)
; top infill extrusion width = 0.55mm (1.51mm^3/s)

M107
M190 S80 ; set bed temperature and wait for it to be reached
M104 S190 ; set temperature
G28 ; home all axes
G1 Z5 F5000 ; lift nozzle

; Filament gcode

M109 S190 ; set temperature and wait for it to be reached
G21 ; set units to millimeters
G90 ; use absolute coordinates
M82 ; use absolute distances for extrusion
G92 E0
G1 Z0.300 F2400.000
G1 E-0.50000 F2400.00000
G92 E0
G1 X45.978 Y56.618 F2400.000
G1 E0.50000 F2400.00000
G1 F1800
G1 X47.623 Y55.679 E0.62655
G1 X49.000 Y55.464 E0.71967
G1 X89.000 Y55.464 E3.39189
G1 X91.415 Y56.161 E3.55979
G1 X153.415 Y95.161 E8.45303
G1 X154.772 Y96.482 E8.57959
G1 X155.536 Y99.000 E8.75536
G1 X155.536 Y101.000 E8.88897
G1 X155.140 Y102.853 E9.01552
G1 X153.415 Y104.839 E9.19129
G1 X91.415 Y143.839 E14.08453
G1 X89.000 Y144.536 E14.25244
G1 X49.000 Y144.536 E16.92465
G1 X47.147 Y144.140 E17.05120
G1 X45.618 Y143.022 E17.17776
G1 X44.679 Y141.377 E17.30431
G1 X44.464 Y140.000 E17.39742
G1 X44.464 Y60.000 E22.74186
G1 X44.860 Y58.147 E22.86841
G1 X45.943 Y56.665 E22.99105
G1 E22.49105 F2400.00000
G92 E0
G1 X92.369 Y104.193 F2400.000
G1 E0.50000 F2400.00000
G1 F1800
G1 X92.193 Y104.369 E0.51771
G1 X92.193 Y141.323 E3.15148
G1 X90.323 Y143.193 E3.34000
G1 X47.677 Y143.193 E6.37939
G1 X45.807 Y141.323 E6.56792
G1 X45.807 Y58.677 E12.45818
G1 X47.677 Y56.807 E12.64670
G1 X90.323 Y56.807 E15.68609
G1 X92.193 Y58.677 E15.87461
G1 X92.193 Y95.631 E18.50838
G1 X92.369 Y95.807 E18.52609
G1 X152.323 Y95.807 E22.79911
G1 X154.193 Y97.677 E22.98763
G1 X154.193 Y102.323 E23.31870
G1 X152.323 Y104.193 E23.50722
G1 X92.427 Y104.193 E27.77607
G1 X91.797 Y103.622 F2400.000
G1 F1800
G1 X91.622 Y103.797 E27.79378
G1 X91.622 Y141.086 E30.45140
G1 X90.086 Y142.622 E30.60619
G1 X47.914 Y142.622 E33.61184
G1 X46.378 Y141.086 E33.76662
G1 X46.378 Y58.914 E39.62314
G1 X47.914 Y57.378 E39.77793
G1 X90.086 Y57.378 E42.78358
G1 X91.622 Y58.914 E42.93836
G1 X91.622 Y96.203 E45.59599
G1 X91.797 Y96.378 E45.61370
G1 X152.086 Y96.378 E49.91057
G1 X153.622 Y97.914 E50.06536
G1 X153.622 Y102.086 E50.36269
G1 X152.086 Y103.622 E50.51747
G1 X91.856 Y103.622 E54.81017
G1 X91.226 Y103.050 F2400.000
G1 F1800
G1 X91.050 Y103.226 E54.82789
G1 X91.050 Y140.849 E57.50937
G1 X89.849 Y142.050 E57.63041
G1 X48.151 Y142.050 E60.60232
G1 X46.950 Y140.849 E60.72337
G1 X46.950 Y59.151 E66.54615
G1 X48.151 Y57.950 E66.66720
G1 X89.849 Y57.950 E69.63911
G1 X91.050 Y59.151 E69.76015
G1 X91.050 Y96.774 E72.44163
G1 X91.226 Y96.950 E72.45935
G1 X151.849 Y96.950 E76.78008
G1 X153.050 Y98.151 E76.90112
G1 X153.050 Y101.849 E77.16471
G1 X151.849 Y103.050 E77.28575
G1 X91.284 Y103.050 E81.60232
G1 X90.639 Y102.510 F2400.000
G1 F1800
G1 X90.479 Y102.683 E81.61910
G1 X90.479 Y140.612 E84.32243
G1 X89.612 Y141.479 E84.40974
G1 X48.388 Y141.479 E87.34791
G1 X47.521 Y140.612 E87.43522
G1 X47.521 Y59.388 E93.22426
G1 X48.388 Y58.521 E93.31157
G1 X89.612 Y58.521 E96.24974
G1 X90.479 Y59.388 E96.33705
G1 X90.479 Y97.317 E99.04038
G1 X90.639 Y97.490 E99.05716
G1 X91.061 Y97.521 E99.08733
G1 X151.612 Y97.521 E103.40294
G1 X152.479 Y98.388 E103.49025
G1 X152.479 Y101.612 E103.72010
G1 X151.612 Y102.479 E103.80740
G1 X91.061 Y102.479 E108.12301
G1 X90.697 Y102.506 E108.14901
G1 X90.067 Y101.980 F2400.000
G1 F1800
G1 X89.907 Y102.152 E108.16579
G1 X89.907 Y140.376 E110.89004
G1 X89.376 Y140.907 E110.94361
G1 X48.624 Y140.907 E113.84805
G1 X48.093 Y140.376 E113.90161
G1 X48.093 Y59.624 E119.65692
G1 X48.624 Y59.093 E119.71048
G1 X89.376 Y59.093 E122.61492
G1 X89.907 Y59.624 E122.66849
G1 X89.907 Y97.848 E125.39274
G1 X90.067 Y98.020 E125.40952
G1 X91.040 Y98.093 E125.47900
G1 X151.376 Y98.093 E129.77927
G1 X151.907 Y98.624 E129.83283
G1 X151.907 Y101.376 E130.02894
G1 X151.376 Y101.907 E130.08251
G1 X91.040 Y101.907 E134.38277
G1 X90.126 Y101.975 E134.44809
G1 X89.496 Y101.450 F2400.000
G1 F1800
G1 X89.336 Y101.622 E134.46487
G1 X89.336 Y140.139 E137.21004
G1 X89.139 Y140.336 E137.22986
G1 X48.861 Y140.336 E140.10056
G1 X48.664 Y140.139 E140.12039
G1 X48.664 Y59.861 E145.84195
G1 X48.861 Y59.664 E145.86178
G1 X89.139 Y59.664 E148.73248
G1 X89.336 Y59.861 E148.75230
G1 X89.336 Y98.378 E151.49747
G1 X89.496 Y98.550 E151.51425
G1 X91.018 Y98.664 E151.62305
G1 X151.139 Y98.664 E155.90797
G1 X151.336 Y98.861 E155.92779
G1 X151.336 Y101.139 E156.09017
G1 X151.139 Y101.336 E156.10999
G1 X91.018 Y101.336 E160.39491
G1 X89.554 Y101.445 E160.49954
G1 X89.134 Y100.000 F2400.000
G1 F1800
G1 X88.515 Y100.000 E160.50326
G1 F1800
G1 X87.897 Y100.000 E160.51324
G1 E160.01324 F2400.00000
G92 E0
G1 X68.730 Y118.991 F2400.000
G1 E0.50000 F2400.00000
G1 F1800
G1 X69.270 Y118.991 E0.53637
G1 X69.270 Y120.270 E0.62249
G1 X68.730 Y120.270 E0.65886
G1 X68.730 Y119.050 E0.74104
G1 E0.24104 F2400.00000
G92 E0
G1 X68.730 Y81.009 F2400.000
G1 E0.50000 F2400.00000
G1 F1800
G1 X68.730 Y79.730 E0.58612
G1 X69.270 Y79.730 E0.62249
G1 X69.270 Y81.009 E0.70862
G1 X68.788 Y81.009 E0.74104
G1 X69.542 Y81.549 F2400.000
G1 F1800
G1 X69.542 Y118.451 E3.22633
G1 X69.810 Y118.451 E3.24436
G1 X69.810 Y120.810 E3.40322
G1 X68.190 Y120.810 E3.51231
G1 X68.190 Y79.190 E6.31530
G1 X69.810 Y79.190 E6.42440
G1 X69.810 Y81.549 E6.58326
G1 X69.601 Y81.549 E6.59735
G1 X70.082 Y82.089 F2400.000
G1 F1800
G1 X70.082 Y117.911 E9.00991
G1 X70.350 Y117.911 E9.02794
G1 X70.350 Y121.350 E9.25952
G1 X67.650 Y121.350 E9.44135
G1 X67.650 Y78.650 E12.31707
G1 X70.350 Y78.650 E12.49890
G1 X70.350 Y82.089 E12.73049
G1 X70.141 Y82.089 E12.74458
G1 X70.622 Y82.629 F2400.000
G1 F1800
G1 X70.622 Y117.371 E15.08440
G1 X70.890 Y117.371 E15.10244
G1 X70.890 Y121.890 E15.40675
G1 X67.110 Y121.890 E15.66131
G1 X67.110 Y78.110 E18.60976
G1 X70.890 Y78.110 E18.86432
G1 X70.890 Y82.629 E19.16864
G1 X70.681 Y82.629 E19.18273
G1 X71.162 Y83.169 F2400.000
G1 F1800
G1 X71.162 Y116.831 E21.44983
G1 X71.430 Y116.831 E21.46786
G1 X71.430 Y122.430 E21.84491
G1 X66.570 Y122.430 E22.17219
G1 X66.570 Y77.570 E25.19338
G1 X71.430 Y77.570 E25.52066
G1 X71.430 Y83.169 E25.89771
G1 X71.221 Y83.169 E25.91180
G1 X71.702 Y83.709 F2400.000
G1 F1800
G1 X71.702 Y116.291 E28.10617
G1 X71.970 Y116.291 E28.12420
G1 X71.970 Y122.970 E28.57398
G1 X66.030 Y122.970 E28.97400
G1 X66.030 Y77.030 E32.06791
G1 X71.970 Y77.030 E32.46793
G1 X71.970 Y83.709 E32.91770
G1 X71.761 Y83.709 E32.93180
G1 X72.242 Y84.249 F2400.000
G1 F1800
G1 X72.242 Y115.751 E35.05343
G1 X72.510 Y115.751 E35.07146
G1 X72.510 Y123.510 E35.59397
G1 X65.490 Y123.510 E36.06672
G1 X65.490 Y76.490 E39.23336
G1 X72.510 Y76.490 E39.70611
G1 X72.510 Y84.249 E40.22861
G1 X72.300 Y84.249 E40.24271
G1 X72.782 Y84.789 F2400.000
G1 F1800
G1 X72.782 Y115.211 E42.29161
G1 X73.050 Y115.211 E42.30965
G1 X73.050 Y124.050 E42.90488
G1 X64.950 Y124.050 E43.45036
G1 X64.950 Y75.950 E46.68973
G1 X73.050 Y75.950 E47.23521
G1 X73.050 Y84.789 E47.83045
G1 X72.840 Y84.789 E47.84454
G1 X73.322 Y85.328 F2400.000
G1 F1800
G1 X73.322 Y114.671 E49.82072
G1 X73.590 Y114.671 E49.83875
G1 X73.590 Y124.590 E50.50672
G1 X64.410 Y124.590 E51.12493
G1 X64.410 Y75.410 E54.43703
G1 X73.590 Y75.410 E55.05524
G1 X73.590 Y85.328 E55.72320
G1 X73.380 Y85.328 E55.73730
G1 X73.862 Y85.868 F2400.000
G1 F1800
G1 X73.862 Y114.132 E57.64074
G1 X74.130 Y114.132 E57.65878
G1 X74.130 Y125.130 E58.39947
G1 X63.870 Y125.130 E59.09041
G1 X63.870 Y74.870 E62.47524
G1 X74.130 Y74.870 E63.16618
G1 X74.130 Y85.868 E63.90688
G1 X73.920 Y85.868 E63.92098
G1 X74.402 Y86.408 F2400.000
G1 F1800
G1 X74.402 Y113.592 E65.75169
G1 X74.670 Y113.592 E65.76972
G1 X74.670 Y125.670 E66.58315
G1 X63.330 Y125.670 E67.34682
G1 X63.330 Y74.330 E70.80438
G1 X74.670 Y74.330 E71.56805
G1 X74.670 Y86.408 E72.38148
G1 X74.460 Y86.408 E72.39557
G1 X74.942 Y86.948 F2400.000
G1 F1800
G1 X74.942 Y113.052 E74.15355
G1 X75.210 Y113.052 E74.17159
G1 X75.210 Y126.210 E75.05774
G1 X62.790 Y126.210 E75.89415
G1 X62.790 Y73.790 E79.42444
G1 X75.210 Y73.790 E80.26084
G1 X75.210 Y86.948 E81.14699
G1 X75.000 Y86.948 E81.16109
G1 X75.482 Y87.488 F2400.000
G1 F1800
G1 X75.482 Y112.512 E82.84634
G1 X75.750 Y112.512 E82.86438
G1 X75.750 Y126.750 E83.82326
G1 X62.250 Y126.750 E84.73239
G1 X62.250 Y73.250 E88.33542
G1 X75.750 Y73.250 E89.24455
G1 X75.750 Y87.488 E90.20343
G1 X75.540 Y87.488 E90.21753
G1 X76.022 Y88.028 F2400.000
G1 F1800
G1 X76.022 Y111.972 E91.83005
G1 X76.290 Y111.972 E91.84808
G1 X76.290 Y127.290 E92.87970
G1 X61.710 Y127.290 E93.86156
G1 X61.710 Y72.710 E97.53731
G1 X76.290 Y72.710 E98.51918
G1 X76.290 Y88.028 E99.55079
G1 X76.080 Y88.028 E99.56489
G1 X76.562 Y88.568 F2400.000
G1 F1800
G1 X76.562 Y111.432 E101.10468
G1 X76.830 Y111.432 E101.12271
G1 X76.830 Y127.830 E102.22706
G1 X61.170 Y127.830 E103.28165
G1 X61.170 Y72.170 E107.03013
G1 X76.830 Y72.170 E108.08473
G1 X76.830 Y88.568 E109.18907
G1 X76.620 Y88.568 E109.20317
G1 X77.102 Y89.108 F2400.000
G1 F1800
G1 X77.102 Y110.892 E110.67023
G1 X77.369 Y110.892 E110.68826
G1 X77.369 Y128.369 E111.86534
G1 X60.631 Y128.369 E112.99266
G1 X60.631 Y71.631 E116.81388
G1 X77.369 Y71.631 E117.94120
G1 X77.369 Y89.108 E119.11827
G1 X77.160 Y89.108 E119.13237
G1 X77.642 Y89.648 F2400.000
G1 F1800
G1 X77.642 Y110.352 E120.52670
G1 X77.909 Y110.352 E120.54473
G1 X77.909 Y128.909 E121.79454
G1 X60.091 Y128.909 E122.99459
G1 X60.091 Y71.091 E126.88854
G1 X77.909 Y71.091 E128.08859
G1 X77.909 Y89.648 E129.33840
G1 X77.700 Y89.648 E129.35249
G1 X78.182 Y90.188 F2400.000
G1 F1800
G1 X78.182 Y109.812 E130.67409
G1 X78.449 Y109.812 E130.69213
G1 X78.449 Y129.449 E132.01466
G1 X59.551 Y129.449 E133.28745
G1 X59.551 Y70.551 E137.25412
G1 X78.449 Y70.551 E138.52690
G1 X78.449 Y90.188 E139.84944
G1 X78.240 Y90.188 E139.86353
G1 X78.722 Y90.728 F2400.000
G1 F1800
G1 X78.722 Y109.272 E141.11240
G1 X78.989 Y109.272 E141.13044
G1 X78.989 Y129.989 E142.52571
G1 X59.011 Y129.989 E143.87122
G1 X59.011 Y70.011 E147.91062
G1 X78.989 Y70.011 E149.25613
G1 X78.989 Y90.728 E150.65140
G1 X78.780 Y90.728 E150.66550
G1 X79.262 Y91.268 F2400.000
G1 F1800
G1 X79.262 Y108.732 E151.84164
G1 X79.529 Y108.732 E151.85967
G1 X79.529 Y130.529 E153.32767
G1 X58.471 Y130.529 E154.74591
G1 X58.471 Y69.471 E158.85805
G1 X79.529 Y69.471 E160.27629
G1 X79.529 Y91.268 E161.74429
G1 X79.320 Y91.268 E161.75838
G1 X79.801 Y91.808 F2400.000
G1 F1800
G1 X79.801 Y108.192 E162.86179
G1 X80.069 Y108.192 E162.87983
G1 X80.069 Y131.069 E164.42055
G1 X57.931 Y131.069 E165.91153
G1 X57.931 Y68.931 E170.09639
G1 X80.069 Y68.931 E171.58736
G1 X80.069 Y91.808 E173.12809
G1 X79.860 Y91.808 E173.14219
G1 X80.341 Y92.348 F2400.000
G1 F1800
G1 X80.341 Y107.652 E174.17287
G1 X80.609 Y107.652 E174.19090
G1 X80.609 Y131.609 E175.80436
G1 X57.391 Y131.609 E177.36806
G1 X57.391 Y68.391 E181.62566
G1 X80.609 Y68.391 E183.18936
G1 X80.609 Y92.348 E184.80282
G1 X80.400 Y92.348 E184.81691
G1 X80.881 Y92.888 F2400.000
G1 F1800
G1 X80.881 Y107.112 E185.77486
G1 X81.149 Y107.112 E185.79290
G1 X81.149 Y132.149 E187.47909
G1 X56.851 Y132.149 E189.11552
G1 X56.851 Y67.851 E193.44584
G1 X81.149 Y67.851 E195.08228
G1 X81.149 Y92.888 E196.76847
G1 X80.940 Y92.888 E196.78256
G1 X81.421 Y93.428 F2400.000
G1 F1800
G1 X81.421 Y106.572 E197.66778
G1 X81.689 Y106.572 E197.68581
G1 X81.689 Y132.689 E199.44473
G1 X56.311 Y132.689 E201.15390
G1 X56.311 Y67.311 E205.55695
G1 X81.689 Y67.311 E207.26612
G1 X81.689 Y93.428 E209.02503
G1 X81.480 Y93.428 E209.03913
G1 X81.961 Y93.968 F2400.000
G1 F1800
G1 X81.961 Y106.032 E209.85162
G1 X82.229 Y106.032 E209.86965
G1 X82.229 Y133.229 E211.70130
G1 X55.771 Y133.229 E213.48320
G1 X55.771 Y66.771 E217.95898
G1 X82.229 Y66.771 E219.74087
G1 X82.229 Y93.968 E221.57252
G1 X82.020 Y93.968 E221.58662
G1 X82.501 Y94.508 F2400.000
G1 F1800
G1 X82.501 Y105.492 E222.32638
G1 X82.769 Y105.492 E222.34441
G1 X82.769 Y133.769 E224.24879
G1 X55.231 Y133.769 E226.10341
G1 X55.231 Y66.231 E230.65193
G1 X82.769 Y66.231 E232.50655
G1 X82.769 Y94.508 E234.41093
G1 X82.560 Y94.508 E234.42503
G1 X83.041 Y95.048 F2400.000
G1 F1800
G1 X83.041 Y104.952 E235.09206
G1 X83.309 Y104.952 E235.11009
G1 X83.309 Y134.309 E237.08720
G1 X54.691 Y134.309 E239.01455
G1 X54.691 Y65.691 E243.63580
G1 X83.309 Y65.691 E245.56315
G1 X83.309 Y95.048 E247.54026
G1 X83.100 Y95.048 E247.55436
G1 X83.581 Y95.588 F2400.000
G1 F1800
G1 X83.581 Y104.412 E248.14866
G1 X83.849 Y104.412 E248.16669
G1 X83.849 Y134.849 E250.21653
G1 X54.151 Y134.849 E252.21662
G1 X54.151 Y65.151 E256.91059
G1 X83.849 Y65.151 E258.91068
G1 X83.849 Y95.588 E260.96051
G1 X83.640 Y95.588 E260.97461
G1 X84.121 Y96.128 F2400.000
G1 F1800
G1 X84.121 Y103.872 E261.49618
G1 X84.389 Y103.872 E261.51421
G1 X84.389 Y135.389 E263.63678
G1 X53.611 Y135.389 E265.70960
G1 X53.611 Y64.611 E270.47630
G1 X84.389 Y64.611 E272.54912
G1 X84.389 Y96.128 E274.67169
G1 X84.180 Y96.128 E274.68578
G1 X84.661 Y96.668 F2400.000
G1 F1800
G1 X84.661 Y103.332 E275.13462
G1 X84.929 Y103.332 E275.15265
G1 X84.929 Y135.929 E277.34795
G1 X53.071 Y135.929 E279.49350
G1 X53.071 Y64.071 E284.33294
G1 X84.929 Y64.071 E286.47848
G1 X84.929 Y96.668 E288.67378
G1 X84.720 Y96.668 E288.68788
G1 X85.201 Y97.208 F2400.000
G1 F1800
G1 X85.201 Y102.792 E289.06398
G1 X85.469 Y102.792 E289.08202
G1 X85.469 Y136.469 E291.35005
G1 X52.531 Y136.469 E293.56832
G1 X52.531 Y63.531 E298.48049
G1 X85.469 Y63.531 E300.69876
G1 X85.469 Y97.208 E302.96679
G1 X85.260 Y97.208 E302.98089
G1 X85.741 Y97.748 F2400.000
G1 F1800
G1 X85.741 Y102.252 E303.28427
G1 X86.009 Y102.252 E303.30230
G1 X86.009 Y137.009 E305.64306
G1 X51.991 Y137.009 E307.93407
G1 X51.991 Y62.991 E312.91896
G1 X86.009 Y62.991 E315.20997
G1 X86.009 Y97.748 E317.55073
G1 X85.800 Y97.748 E317.56483
G1 X86.281 Y98.288 F2400.000
G1 F1800
G1 X86.281 Y101.712 E317.79547
G1 X86.549 Y101.712 E317.81351
G1 X86.549 Y137.549 E320.22700
G1 X51.451 Y137.549 E322.59073
G1 X51.451 Y62.451 E327.64836
G1 X86.549 Y62.451 E330.01209
G1 X86.549 Y98.288 E332.42559
G1 X86.340 Y98.288 E332.43968
G1 X86.821 Y98.828 F2400.000
G1 F1800
G1 X86.821 Y101.172 E332.59760
G1 X87.089 Y101.172 E332.61563
G1 X87.089 Y138.089 E335.10185
G1 X50.911 Y138.089 E337.53832
G1 X50.911 Y61.911 E342.66868
G1 X87.089 Y61.911 E345.10514
G1 X87.089 Y98.828 E347.59136
G1 X86.880 Y98.828 E347.60546
G1 X87.361 Y99.368 F2400.000
G1 F1800
G1 X87.361 Y100.632 E347.69064
G1 X87.629 Y100.632 E347.70868
G1 X87.629 Y138.629 E350.26763
G1 X50.371 Y138.629 E352.77683
G1 X50.371 Y61.371 E357.97991
G1 X87.629 Y61.371 E360.48911
G1 X87.629 Y99.368 E363.04806
G1 X87.419 Y99.368 E363.06216
G1 X88.700 Y100.872 F2400.000
G1 F1800
G1 X88.700 Y139.700 E365.65610
G1 X49.300 Y139.700 E368.28823
G1 X49.300 Y60.300 E373.59258
G1 X88.700 Y60.300 E376.22471
G1 X88.700 Y99.128 E378.81866
G1 X90.989 Y99.300 E378.97199
G1 X150.700 Y99.300 E382.96102
G1 X150.700 Y100.700 E383.05455
G1 X90.989 Y100.700 E387.04358
G1 X88.758 Y100.867 E387.19301
G1 X88.310 Y100.872 F2400.000
G1 X88.164 Y100.375 F2400.000
G1 F1800
G1 X88.164 Y139.164 E389.78437
G1 X49.836 Y139.164 E392.34494
G1 X49.836 Y60.836 E397.57772
G1 X88.164 Y60.836 E400.13829
G1 X88.164 Y99.625 E402.72965
G1 X90.969 Y99.836 E402.91752
G1 X150.164 Y99.836 E406.87211
G1 X150.164 Y100.164 E406.89407
G1 X90.969 Y100.164 E410.84867
G1 X88.223 Y100.370 E411.03263
M140 S70 ; set bed temperature
G1 Z0.500 F2400.000
G1 X88.089 Y100.000 F2400.000
G1 F1200
G1 X88.448 Y100.000 E411.04824
G1 F1200
G1 X89.166 Y100.000 E411.07368
G1 F1200
G1 X89.883 Y100.000 E411.09336
G1 F1200
G1 X90.600 Y100.000 E411.10726
G1 F1200
G1 X150.089 Y100.000 E411.77922
G1 X87.983 Y100.000 F2400.000
G1 X87.891 Y101.090 F2400.000
G1 F1200
G1 X87.534 Y100.733 E411.80038
G1 X87.785 Y100.733 E411.81087
G1 X87.785 Y100.983 E411.82136
G1 X87.891 Y61.216 F2400.000
G1 F1200
G1 X87.784 Y61.109 E411.82769
G1 X87.072 Y61.109 E411.85750
G1 X87.891 Y61.928 E411.90598
